public/favicon.svg

<svg width="16" height="11" viewBox="0 0 16 11" fill="none" xmlns="http://www.w3.org/2000/svg">
<path d="M0 5.60813V4.86239C0.482955 4.86239 0.819602 4.76438 1.00994 4.56836C1.20312 4.3695 1.29972 4.04705 1.29972 3.60103V2.51438C1.29972 2.03427 1.35938 1.6408 1.47869 1.33398C1.60085 1.02717 1.77841 0.788529 2.01136 0.618075C2.24432 0.44762 2.52841 0.329723 2.86364 0.264382C3.19886 0.1962 3.57955 0.162109 4.00568 0.162109V1.34677C3.67045 1.34677 3.41335 1.39364 3.23438 1.48739C3.0554 1.5783 2.93182 1.71893 2.86364 1.90927C2.7983 2.09961 2.76562 2.34251 2.76562 2.63796V4.03569C2.76562 4.25444 2.72869 4.45898 2.65483 4.64933C2.58097 4.83967 2.44602 5.00728 2.25 5.15217C2.05398 5.29421 1.77415 5.40643 1.41051 5.48881C1.04972 5.56836 0.579545 5.60813 0 5.60813ZM4.00568 10.9902C3.57955 10.9902 3.19886 10.9561 2.86364 10.888C2.52841 10.8226 2.24432 10.7047 2.01136 10.5343C1.77841 10.3638 1.60085 10.1252 1.47869 9.81836C1.35938 9.51154 1.29972 9.11808 1.29972 8.63796V7.55558C1.29972 7.10955 1.20312 6.78853 1.00994 6.59251C0.819602 6.39364 0.482955 6.29421 0 6.29421V5.54847C0.579545 5.54847 1.04972 5.58967 1.41051 5.67205C1.77415 5.7516 2.05398 5.86381 2.25 6.0087C2.44602 6.15075 2.58097 6.31694 2.65483 6.50728C2.72869 6.69762 2.76562 6.90075 2.76562 7.11665V8.51438C2.76562 8.80984 2.7983 9.05273 2.86364 9.24308C2.93182 9.43342 3.0554 9.57546 3.23438 9.66921C3.41335 9.76296 3.67045 9.80984 4.00568 9.80984V10.9902ZM0 6.29421V4.86239H1.35085V6.29421H0Z" fill="white"/>
<path d="M15.6092 5.58274V4.837C15.1262 4.837 14.7896 4.73899 14.5993 4.54297C14.4061 4.3441 14.3095 4.02166 14.3095 3.57564V2.48899C14.3095 2.00888 14.2498 1.61541 14.1305 1.30859C14.0083 1.00178 13.8308 0.763139 13.5978 0.592684C13.3649 0.42223 13.0808 0.304332 12.7456 0.238991C12.4103 0.17081 12.0297 0.136719 11.6035 0.136719V1.32138C11.9387 1.32138 12.1958 1.36825 12.3748 1.462C12.5538 1.55291 12.6774 1.69354 12.7456 1.88388C12.8109 2.07422 12.8436 2.31712 12.8436 2.61257V4.0103C12.8436 4.22905 12.8805 4.43359 12.9544 4.62393C13.0282 4.81428 13.1632 4.98189 13.3592 5.12678C13.5552 5.26882 13.835 5.38104 14.1987 5.46342C14.5595 5.54297 15.0297 5.58274 15.6092 5.58274ZM11.6035 10.9648C12.0297 10.9648 12.4103 10.9308 12.7456 10.8626C13.0808 10.7972 13.3649 10.6793 13.5978 10.5089C13.8308 10.3384 14.0083 10.0998 14.1305 9.79297C14.2498 9.48615 14.3095 9.09268 14.3095 8.61257V7.53018C14.3095 7.08416 14.4061 6.76314 14.5993 6.56712C14.7896 6.36825 15.1262 6.26882 15.6092 6.26882V5.52308C15.0297 5.52308 14.5595 5.56428 14.1987 5.64666C13.835 5.72621 13.5552 5.83842 13.3592 5.98331C13.1632 6.12536 13.0282 6.29155 12.9544 6.48189C12.8805 6.67223 12.8436 6.87535 12.8436 7.09126V8.48899C12.8436 8.78445 12.8109 9.02734 12.7456 9.21768C12.6774 9.40803 12.5538 9.55007 12.3748 9.64382C12.1958 9.73757 11.9387 9.78445 11.6035 9.78445V10.9648ZM15.6092 6.26882V4.837H14.2583V6.26882H15.6092Z" fill="white"/>
<path d="M9.47869 0L6.66619 10.4489H4.67188L7.48438 0H9.47869Z" fill="#FFF085"/>
<path d="M9.79675 10.506C9.4672 10.506 9.18453 10.391 8.94874 10.1609C8.71578 9.92791 8.60073 9.64524 8.60357 9.31286C8.60073 8.98899 8.71578 8.712 8.94874 8.48189C9.18453 8.25178 9.4672 8.13672 9.79675 8.13672C10.1092 8.13672 10.3848 8.25178 10.6235 8.48189C10.8649 8.712 10.9871 8.98899 10.9899 9.31286C10.9871 9.53445 10.9289 9.73615 10.8152 9.91797C10.7044 10.0969 10.5595 10.2404 10.3806 10.3484C10.2016 10.4535 10.007 10.506 9.79675 10.506Z" fill="#FFF085"/>
</svg>

<svg 
  xmlns="http://www.w3.org/2000/svg" 
  width="16" 
  height="11" 
  fill="none" 
  viewBox="0 0 16 11"
>
  <path fill="#fff" d="M0 5.608v-.746q.725 0 1.01-.294.29-.298.29-.967V2.514q0-.72.179-1.18.184-.46.532-.716.35-.255.853-.354A6 6 0 0 1 4.006.162v1.185q-.504 0-.772.14a.73.73 0 0 0-.37.422q-.099.286-.098.729v1.398q0 .327-.111.613-.111.285-.405.503-.294.213-.84.337-.54.12-1.41.12m4.006 5.382q-.64 0-1.142-.102a2.1 2.1 0 0 1-.853-.354q-.35-.255-.532-.716-.18-.46-.18-1.18V7.556q0-.669-.29-.963-.285-.3-1.009-.299v-.746q.87 0 1.41.124.546.12.84.337.294.213.405.498.11.286.11.61v1.397q0 .444.099.73.102.284.37.425.269.14.772.14zM0 6.294V4.862h1.35v1.432zm15.61-.711v-.746q-.726 0-1.01-.294-.29-.298-.29-.967V2.489q0-.72-.18-1.18a1.6 1.6 0 0 0-.532-.716 2.1 2.1 0 0 0-.852-.354 6 6 0 0 0-1.142-.102V1.32q.503 0 .77.141.27.136.372.422.098.285.098.729V4.01q0 .33.11.614.112.285.405.503.294.213.84.336.54.12 1.41.12m-4.006 5.382q.639 0 1.142-.102.503-.099.852-.354.35-.256.532-.716.18-.46.18-1.18V7.53q0-.669.29-.963.285-.298 1.01-.298v-.746q-.87 0-1.411.124-.546.12-.84.336a1.1 1.1 0 0 0-.405.499q-.11.285-.11.61v1.397q0 .443-.098.729a.75.75 0 0 1-.371.426q-.27.14-.771.14zm4.005-4.696V4.837h-1.35v1.432z"/>
  <path fill="#fff085" d="M9.479 0 6.666 10.449H4.672L7.484 0zm.318 10.506q-.494 0-.848-.345a1.14 1.14 0 0 1-.345-.848q-.004-.486.345-.831.354-.345.848-.345.468 0 .826.345.363.345.367.83a1.15 1.15 0 0 1-.175.606q-.165.268-.434.43a1.13 1.13 0 0 1-.584.158"/>
</svg>
